.local/share/icons/Gruvbox-Plus-Dark/actions/16/document-export.svg

<svg xmlns="http://www.w3.org/2000/svg" width="16" height="16" viewBox="0 0 16 16">
 <defs>
  <style id="current-color-scheme" type="text/css">
   .ColorScheme-Text { color:#ebdbb2; } .ColorScheme-Highlight { color:#458588; }
  </style>
 </defs>
 <path style="fill:currentColor" class="ColorScheme-Text" d="M 3 1.0097656 C 3 1.0097656 2 1.0097656 2 2.0097656 L 2 11.005859 L 2 14.009766 C 2 15.009766 3 15.009766 3 15.009766 L 13 15.009766 C 14 15.009766 14 14.009766 14 14.009766 L 14 9.7597656 L 12 11.009766 L 12 13.009766 L 4 13.009766 L 4 3.0136719 L 12 3.0136719 L 12 5.0097656 L 14 6.2597656 L 14 2.0097656 C 14 1.0097656 13 1.0097656 13 1.0097656 L 3 1.0097656 z M 10 5.0078125 L 10 7.0078125 L 6 7.0078125 L 6 9.0078125 L 10 9.0078125 L 10 11.007812 L 14.5 8.0078125 L 10 5.0078125 z"/>
</svg>

<svg width="16" height="16" version="1.1" xmlns="http://www.w3.org/2000/svg">
  <defs>
    <style id="current-color-scheme" type="text/css">.ColorScheme-Text { color:#ebdbb2; } .ColorScheme-Highlight { color:#458588; }</style>
  </defs>
  <path class="ColorScheme-Text" d="m3 1s-1 2e-6 -1 1v12c0 1 1 1 1 1h10c1 0 1-1 1-1v-4l-2 1.49v1.471l-8 0.03906v-9.996h8v1.486l2 1.51v-4c0-1-1-1-1-1zm7 4v2h-4v2h4v2l4-3z" fill="currentColor"/>
</svg>
